; generated by Slic3r 1.1.7 on 2015-02-16 at 10:28:17

; perimeters extrusion width = 0.50mm
; infill extrusion width = 0.52mm
; solid infill extrusion width = 0.52mm
; top infill extrusion width = 0.52mm

G21 ; set units to millimeters
M107
M104 S200 ; set temperature
G28 ; home all axes
G1 Z5 F5000 ; lift nozzle

M109 S200 ; wait for temperature to be reached
G90 ; use absolute coordinates
G92 E0
M82 ; use absolute distances for extrusion
G1 F1800.000 E-1.00000
G92 E0
G1 Z0.500 F7800.000
G1 X84.912 Y114.240 F7800.000
G1 E1.00000 F1800.000
G1 X87.087 Y113.379 E1.14774 F1080.000
G1 X88.500 Y113.232 E1.23742
G1 X111.500 Y113.232 E2.68977
G1 X113.806 Y113.629 E2.83751
G1 X115.846 Y114.775 E2.98525 F1080.000
G1 X117.385 Y116.537 E3.13299
G1 X118.246 Y118.712 E3.28073
G1 X118.393 Y120.125 E3.37041
G1 X118.393 Y143.125 E4.82276
G1 X117.996 Y145.431 E4.97050
G1 X116.850 Y147.471 E5.11824
G1 X115.088 Y149.010 E5.26598
G1 X112.913 Y149.871 E5.41373
G1 X111.500 Y150.018 E5.50340
G1 X88.500 Y150.018 E6.95575
G1 X86.194 Y149.621 E7.10349
G1 X84.154 Y148.475 E7.25123
G1 X82.615 Y146.713 E7.39898
G1 X81.754 Y144.538 E7.54672
G1 X81.607 Y143.125 E7.63640
G1 X81.607 Y120.125 E9.08874
G1 X82.004 Y117.819 E9.23649
G1 X83.150 Y115.779 E9.38423
G1 X84.855 Y114.289 E9.52723
G1 F1800.000 E8.52723
G92 E0
G1 X109.215 Y140.840 F7800.000
G1 E1.00000 F1800.000
G1 X90.785 Y140.840 E2.16372 F540.000
G1 X90.785 Y122.410 E3.32744
G1 X109.215 Y122.410 E4.49117
G1 X109.215 Y140.765 E5.65015
G1 X110.107 Y141.732 F7800.000
G1 X89.893 Y141.732 E6.92661 F540.000
G1 X89.893 Y121.518 E8.20308
G1 X110.107 Y121.518 E9.47954
G1 X110.107 Y141.657 E10.75126
G1 X111.000 Y142.625 F7800.000
G1 X89.000 Y142.625 E12.14047 F378.000
G1 X89.000 Y120.625 E13.52967
G1 X111.000 Y120.625 E14.91887
G1 X111.000 Y142.550 E16.30333
G1 X110.567 Y142.375 F7800.000
G1 X91.413 Y140.172 F7800.000
G1 X91.453 Y140.212 E16.30691 F1080.000
G1 X92.722 Y140.212 E16.38705
G1 X91.413 Y138.903 E16.50397
G1 X91.413 Y137.634 E16.58412
G1 X93.991 Y140.212 E16.81438
G1 X95.260 Y140.212 E16.89453
G1 X91.413 Y136.365 E17.23814
G1 X91.413 Y135.095 E17.31828
G1 X96.530 Y140.212 E17.77524
G1 X97.799 Y140.212 E17.85538
G1 X91.413 Y133.826 E18.42568
G1 X91.413 Y132.557 E18.50583
G1 X99.068 Y140.212 E19.18947
G1 X100.337 Y140.212 E19.26962
G1 X91.413 Y131.288 E20.06661
G1 X91.413 Y130.018 E20.14676
G1 X101.607 Y140.212 E21.05709
G1 X102.876 Y140.212 E21.13724
G1 X91.413 Y128.749 E22.16092
G1 X91.413 Y127.480 E22.24107
G1 X104.145 Y140.212 E23.37809
G1 X105.414 Y140.212 E23.45824
G1 X91.413 Y126.211 E24.70861
G1 X91.413 Y124.941 E24.78876
G1 X106.684 Y140.212 E26.15248
G1 X107.953 Y140.212 E26.23262
G1 X91.413 Y123.672 E27.70968
G1 X92.047 Y123.038 E27.76636
G1 X108.587 Y139.578 E29.24342
G1 X108.587 Y138.309 E29.32357
G1 X93.316 Y123.038 E30.68728
G1 X94.586 Y123.038 E30.76743
G1 X108.587 Y137.039 E32.01780
G1 X108.587 Y135.770 E32.09795
G1 X95.855 Y123.038 E33.23497
G1 X97.124 Y123.038 E33.31512
G1 X108.587 Y134.501 E34.33880
G1 X108.587 Y133.232 E34.41895
G1 X98.393 Y123.038 E35.32928
G1 X99.663 Y123.038 E35.40943
G1 X108.587 Y131.962 E36.20642
G1 X108.587 Y130.693 E36.28657
G1 X100.932 Y123.038 E36.97021
G1 X102.201 Y123.038 E37.05036
G1 X108.587 Y129.424 E37.62066
G1 X108.587 Y128.155 E37.70080
G1 X103.470 Y123.038 E38.15776
G1 X104.740 Y123.038 E38.23790
G1 X108.587 Y126.885 E38.58151
G1 X108.587 Y125.616 E38.66166
G1 X106.009 Y123.038 E38.89192
G1 X107.278 Y123.038 E38.97207
G1 X108.587 Y124.347 E39.08899
G1 X108.587 Y123.078 E39.16913
G1 X108.547 Y123.038 E39.17271
M106 S255
G1 F1800.000 E38.17271
G92 E0
G1 Z0.900 F7800.000
G1 X110.250 Y141.875 F7800.000
G1 E1.00000 F1800.000
G1 X89.750 Y141.875 E1.58003 F1375.505
G1 X89.750 Y121.375 E2.16006
G1 X110.250 Y121.375 E2.74009
G1 X110.250 Y141.800 E3.31800
G1 X110.750 Y142.375 F7800.000
G1 X89.250 Y142.375 E3.92633 F1375.505
G1 X89.250 Y120.875 E4.53465
G1 X110.750 Y120.875 E5.14298
G1 X110.750 Y142.300 E5.74918
G1 X111.250 Y142.875 F7800.000
G1 X88.750 Y142.875 E6.38580 F962.853
G1 X88.750 Y120.375 E7.02242
G1 X111.250 Y120.375 E7.65904
G1 X111.250 Y142.800 E8.29354
G1 X110.817 Y142.625 F7800.000
G1 X109.903 Y141.488 F7800.000
G1 X109.863 Y141.528 E8.29520 F2751.010
G1 X109.117 Y141.528 E8.31714
G1 X109.903 Y140.742 E8.34982
G1 X109.903 Y139.996 E8.37175
G1 X108.371 Y141.528 E8.43545
G1 X107.625 Y141.528 E8.45739
G1 X109.903 Y139.250 E8.55210
G1 X109.903 Y138.505 E8.57404
G1 X106.880 Y141.528 E8.69977
G1 X106.134 Y141.528 E8.72171
G1 X109.903 Y137.759 E8.87846
G1 X109.903 Y137.013 E8.90040
G1 X105.388 Y141.528 E9.08817
G1 X104.642 Y141.528 E9.11010
G1 X109.903 Y136.267 E9.32889
G1 X109.903 Y135.521 E9.35083
G1 X103.896 Y141.528 E9.60064
G1 X103.150 Y141.528 E9.62257
G1 X109.903 Y134.775 E9.90340
G1 X109.903 Y134.029 E9.92533
G1 X102.404 Y141.528 E10.23718
G1 X101.658 Y141.528 E10.25911
G1 X109.903 Y133.283 E10.60198
G1 X109.903 Y132.537 E10.62391
G1 X100.912 Y141.528 E10.99779
G1 X100.166 Y141.528 E11.01973
G1 X109.903 Y131.791 E11.42463
G1 X109.903 Y131.046 E11.44656
G1 X99.421 Y141.528 E11.88248
G1 X98.675 Y141.528 E11.90442
G1 X109.903 Y130.300 E12.37135
G1 X109.903 Y129.554 E12.39329
G1 X97.929 Y141.528 E12.89124
G1 X97.183 Y141.528 E12.91318
G1 X109.903 Y128.808 E13.44215
G1 X109.903 Y128.062 E13.46409
G1 X96.437 Y141.528 E14.02408
G1 X95.691 Y141.528 E14.04601
G1 X109.903 Y127.316 E14.63702
G1 X109.903 Y126.570 E14.65896
G1 X94.945 Y141.528 E15.28099
G1 X94.199 Y141.528 E15.30292
G1 X109.903 Y125.824 E15.95597
G1 X109.903 Y125.078 E15.97790
G1 X93.453 Y141.528 E16.66197
G1 X92.708 Y141.528 E16.68390
G1 X109.903 Y124.333 E17.39899
G1 X109.903 Y123.587 E17.42092
G1 X91.962 Y141.528 E18.16702
G1 X91.216 Y141.528 E18.18896
G1 X109.903 Y122.841 E18.96608
G1 X109.903 Y122.095 E18.98801
G1 X90.470 Y141.528 E19.79615
G1 X90.097 Y141.155 E19.81166
G1 X109.530 Y121.722 E20.61980
G1 X108.784 Y121.722 E20.64173
G1 X90.097 Y140.409 E21.41886
G1 X90.097 Y139.663 E21.44079
G1 X108.038 Y121.722 E22.18689
G1 X107.292 Y121.722 E22.20883
G1 X90.097 Y138.917 E22.92391
G1 X90.097 Y138.172 E22.94584
G1 X106.547 Y121.722 E23.62991
G1 X105.801 Y121.722 E23.65184
G1 X90.097 Y137.426 E24.30489
G1 X90.097 Y136.680 E24.32683
G1 X105.055 Y121.722 E24.94886
G1 X104.309 Y121.722 E24.97079
G1 X90.097 Y135.934 E25.56180
G1 X90.097 Y135.188 E25.58373
G1 X103.563 Y121.722 E26.14373
G1 X102.817 Y121.722 E26.16566
G1 X90.097 Y134.442 E26.69464
G1 X90.097 Y133.696 E26.71657
G1 X102.071 Y121.722 E27.21453
G1 X101.325 Y121.722 E27.23646
G1 X90.097 Y132.950 E27.70340
G1 X90.097 Y132.204 E27.72533
G1 X100.579 Y121.722 E28.16125
G1 X99.834 Y121.722 E28.18318
G1 X90.097 Y131.459 E28.58808
G1 X90.097 Y130.713 E28.61002
G1 X99.088 Y121.722 E28.98390
G1 X98.342 Y121.722 E29.00583
G1 X90.097 Y129.967 E29.34870
G1 X90.097 Y129.221 E29.37063
G1 X97.596 Y121.722 E29.68248
G1 X96.850 Y121.722 E29.70441
G1 X90.097 Y128.475 E29.98524
G1 X90.097 Y127.729 E30.00717
G1 X96.104 Y121.722 E30.25698
G1 X95.358 Y121.722 E30.27892
G1 X90.097 Y126.983 E30.49771
G1 X90.097 Y126.237 E30.51964
G1 X94.612 Y121.722 E30.70742
G1 X93.866 Y121.722 E30.72935
G1 X90.097 Y125.491 E30.88610
G1 X90.097 Y124.745 E30.90804
G1 X93.120 Y121.722 E31.03377
G1 X92.375 Y121.722 E31.05571
G1 X90.097 Y124.000 E31.15043
G1 X90.097 Y123.254 E31.17236
G1 X91.629 Y121.722 E31.23606
G1 X90.883 Y121.722 E31.25799
G1 X90.097 Y122.508 E31.29067
G1 X90.097 Y121.762 E31.31261
G1 X90.137 Y121.722 E31.31427
G1 F1800.000 E30.31427
G92 E0
G1 Z1.300 F7800.000
G1 X110.250 Y141.875 F7800.000
G1 E1.00000 F1800.000
G1 X89.750 Y141.875 E1.58003 F1375.505
G1 X89.750 Y121.375 E2.16006
G1 X110.250 Y121.375 E2.74009
G1 X110.250 Y141.800 E3.31800
G1 X110.750 Y142.375 F7800.000
G1 X89.250 Y142.375 E3.92633 F1375.505
G1 X89.250 Y120.875 E4.53465
G1 X110.750 Y120.875 E5.14298
G1 X110.750 Y142.300 E5.74918
G1 X111.250 Y142.875 F7800.000
G1 X88.750 Y142.875 E6.38580 F962.853
G1 X88.750 Y120.375 E7.02242
G1 X111.250 Y120.375 E7.65904
G1 X111.250 Y142.800 E8.29354
G1 X110.817 Y142.625 F7800.000
G1 X90.097 Y141.488 F7800.000
G1 X90.137 Y141.528 E8.29520 F2751.010
G1 X90.883 Y141.528 E8.31714
G1 X90.097 Y140.742 E8.34982
G1 X90.097 Y139.996 E8.37175
G1 X91.629 Y141.528 E8.43545
G1 X92.375 Y141.528 E8.45739
G1 X90.097 Y139.250 E8.55210
G1 X90.097 Y138.505 E8.57404
G1 X93.120 Y141.528 E8.69977
G1 X93.866 Y141.528 E8.72171
G1 X90.097 Y137.759 E8.87846
G1 X90.097 Y137.013 E8.90040
G1 X94.612 Y141.528 E9.08817
G1 X95.358 Y141.528 E9.11010
G1 X90.097 Y136.267 E9.32889
G1 X90.097 Y135.521 E9.35083
G1 X96.104 Y141.528 E9.60064
G1 X96.850 Y141.528 E9.62257
G1 X90.097 Y134.775 E9.90340
G1 X90.097 Y134.029 E9.92533
G1 X97.596 Y141.528 E10.23718
G1 X98.342 Y141.528 E10.25911
G1 X90.097 Y133.283 E10.60198
G1 X90.097 Y132.537 E10.62391
G1 X99.088 Y141.528 E10.99779
G1 X99.834 Y141.528 E11.01973
G1 X90.097 Y131.791 E11.42463
G1 X90.097 Y131.046 E11.44656
G1 X100.579 Y141.528 E11.88248
G1 X101.325 Y141.528 E11.90441
G1 X90.097 Y130.300 E12.37135
G1 X90.097 Y129.554 E12.39329
G1 X102.071 Y141.528 E12.89124
G1 X102.817 Y141.528 E12.91318
G1 X90.097 Y128.808 E13.44215
G1 X90.097 Y128.062 E13.46408
G1 X103.563 Y141.528 E14.02408
G1 X104.309 Y141.528 E14.04601
G1 X90.097 Y127.316 E14.63702
G1 X90.097 Y126.570 E14.65896
G1 X105.055 Y141.528 E15.28099
G1 X105.801 Y141.528 E15.30292
G1 X90.097 Y125.824 E15.95597
G1 X90.097 Y125.078 E15.97790
G1 X106.547 Y141.528 E16.66197
G1 X107.292 Y141.528 E16.68390
G1 X90.097 Y124.333 E17.39899
G1 X90.097 Y123.587 E17.42092
G1 X108.038 Y141.528 E18.16702
G1 X108.784 Y141.528 E18.18896
G1 X90.097 Y122.841 E18.96608
G1 X90.097 Y122.095 E18.98801
G1 X109.530 Y141.528 E19.79615
G1 X109.903 Y141.155 E19.81166
G1 X90.470 Y121.722 E20.61980
G1 X91.216 Y121.722 E20.64173
G1 X109.903 Y140.409 E21.41885
G1 X109.903 Y139.663 E21.44079
G1 X91.962 Y121.722 E22.18689
G1 X92.708 Y121.722 E22.20882
G1 X109.903 Y138.917 E22.92391
G1 X109.903 Y138.172 E22.94584
G1 X93.453 Y121.722 E23.62991
G1 X94.199 Y121.722 E23.65184
G1 X109.903 Y137.426 E24.30489
G1 X109.903 Y136.680 E24.32682
G1 X94.945 Y121.722 E24.94885
G1 X95.691 Y121.722 E24.97079
G1 X109.903 Y135.934 E25.56180
G1 X109.903 Y135.188 E25.58373
G1 X96.437 Y121.722 E26.14373
G1 X97.183 Y121.722 E26.16566
G1 X109.903 Y134.442 E26.69463
G1 X109.903 Y133.696 E26.71657
G1 X97.929 Y121.722 E27.21452
G1 X98.675 Y121.722 E27.23646
G1 X109.903 Y132.950 E27.70340
G1 X109.903 Y132.204 E27.72533
G1 X99.421 Y121.722 E28.16125
G1 X100.166 Y121.722 E28.18318
G1 X109.903 Y131.459 E28.58808
G1 X109.903 Y130.713 E28.61002
G1 X100.912 Y121.722 E28.98390
G1 X101.658 Y121.722 E29.00583
G1 X109.903 Y129.967 E29.34870
G1 X109.903 Y129.221 E29.37063
G1 X102.404 Y121.722 E29.68248
G1 X103.150 Y121.722 E29.70441
G1 X109.903 Y128.475 E29.98524
G1 X109.903 Y127.729 E30.00717
G1 X103.896 Y121.722 E30.25698
G1 X104.642 Y121.722 E30.27892
G1 X109.903 Y126.983 E30.49771
G1 X109.903 Y126.237 E30.51964
G1 X105.388 Y121.722 E30.70741
G1 X106.134 Y121.722 E30.72935
G1 X109.903 Y125.491 E30.88610
G1 X109.903 Y124.745 E30.90804
G1 X106.880 Y121.722 E31.03377
G1 X107.625 Y121.722 E31.05571
G1 X109.903 Y124.000 E31.15042
G1 X109.903 Y123.254 E31.17236
G1 X108.371 Y121.722 E31.23606
G1 X109.117 Y121.722 E31.25799
G1 X109.903 Y122.508 E31.29067
G1 X109.903 Y121.762 E31.31261
G1 X109.863 Y121.722 E31.31427
G1 F1800.000 E30.31427
G92 E0
G1 Z1.700 F7800.000
G1 X110.250 Y141.875 F7800.000
G1 E1.00000 F1800.000
G1 X89.750 Y141.875 E1.58003 F985.776
G1 X89.750 Y121.375 E2.16006
G1 X110.250 Y121.375 E2.74009
G1 X110.250 Y141.800 E3.31800
G1 X110.750 Y142.375 F7800.000
G1 X89.250 Y142.375 E3.92633 F985.776
G1 X89.250 Y120.875 E4.53465
G1 X110.750 Y120.875 E5.14298
G1 X110.750 Y142.300 E5.74918
G1 X111.250 Y142.875 F7800.000
G1 X88.750 Y142.875 E6.38580 F690.043
G1 X88.750 Y120.375 E7.02242
G1 X111.250 Y120.375 E7.65904
G1 X111.250 Y142.800 E8.29354
G1 X110.817 Y142.625 F7800.000
G1 X109.883 Y139.847 F7800.000
G1 X109.382 Y139.713 E8.30879 F1971.552
G1 X108.109 Y140.986 E8.36172
G1 X108.249 Y141.508 E8.37762
G1 X105.750 Y141.508 E8.45111
G1 X106.873 Y140.385 E8.49780
G1 X107.742 Y140.618 E8.52426
G1 X109.015 Y139.346 E8.57719
G1 X108.782 Y138.476 E8.60366
G1 X109.883 Y137.375 E8.64946
G1 X109.883 Y135.538 E8.70348
G1 X109.454 Y135.967 E8.72131
G1 X109.687 Y136.836 E8.74778
G1 X108.414 Y138.109 E8.80071
G1 X107.545 Y137.876 E8.82718
G1 X106.272 Y139.149 E8.88011
G1 X106.505 Y140.018 E8.90657
G1 X105.232 Y141.291 E8.95951
G1 X104.363 Y141.058 E8.98597
G1 X103.913 Y141.508 E9.00469
G1 X103.178 Y141.508 E9.02630
G1 X103.995 Y140.690 E9.06030
G1 X103.763 Y139.821 E9.08677
G1 X105.035 Y138.548 E9.13970
G1 X105.905 Y138.781 E9.16616
G1 X107.178 Y137.508 E9.21910
G1 X106.945 Y136.639 E9.24556
G1 X108.217 Y135.366 E9.29849
G1 X109.087 Y135.599 E9.32496
G1 X109.883 Y134.803 E9.35807
G1 X109.883 Y132.966 E9.41209
G1 X109.759 Y133.090 E9.41724
G1 X108.890 Y132.857 E9.44371
G1 X107.617 Y134.129 E9.49664
G1 X107.850 Y134.999 E9.52311
G1 X106.577 Y136.272 E9.57604
G1 X105.708 Y136.039 E9.60250
G1 X104.435 Y137.311 E9.65543
G1 X104.668 Y138.181 E9.68190
G1 X103.395 Y139.454 E9.73483
G1 X102.526 Y139.221 E9.76130
G1 X101.253 Y140.494 E9.81423
G1 X101.486 Y141.363 E9.84070
G1 X101.341 Y141.508 E9.84673
G1 X98.835 Y141.508 E9.92041
G1 X98.743 Y141.166 E9.93083
G1 X100.016 Y139.893 E9.98376
G1 X100.885 Y140.126 E10.01022
G1 X102.158 Y138.853 E10.06316
G1 X101.925 Y137.984 E10.08962
G1 X103.198 Y136.711 E10.14255
G1 X104.068 Y136.944 E10.16902
G1 X105.340 Y135.671 E10.22195
G1 X105.107 Y134.802 E10.24842
G1 X106.380 Y133.529 E10.30135
G1 X107.250 Y133.762 E10.32781
G1 X108.522 Y132.489 E10.38074
G1 X108.290 Y131.620 E10.40721
G1 X109.562 Y130.347 E10.46014
G1 X109.883 Y130.433 E10.46991
G1 X109.883 Y128.189 E10.53589
G1 X108.962 Y129.110 E10.57419
G1 X109.195 Y129.979 E10.60066
G1 X107.922 Y131.252 E10.65359
G1 X107.053 Y131.019 E10.68005
G1 X105.780 Y132.292 E10.73299
G1 X106.013 Y133.162 E10.75945
G1 X104.740 Y134.434 E10.81238
G1 X103.871 Y134.201 E10.83885
G1 X102.598 Y135.474 E10.89178
G1 X102.831 Y136.344 E10.91825
G1 X101.558 Y137.617 E10.97118
G1 X100.689 Y137.384 E10.99764
G1 X99.416 Y138.656 E11.05057
G1 X99.649 Y139.526 E11.07704
G1 X98.376 Y140.799 E11.12997
G1 X97.506 Y140.566 E11.15644
G1 X96.564 Y141.508 E11.19563
G1 X94.727 Y141.508 E11.24965
G1 X94.997 Y141.238 E11.26088
G1 X95.866 Y141.471 E11.28734
G1 X97.139 Y140.198 E11.34028
G1 X96.906 Y139.329 E11.36674
G1 X98.179 Y138.056 E11.41967
G1 X99.048 Y138.289 E11.44614
G1 X100.321 Y137.016 E11.49907
G1 X100.088 Y136.147 E11.52554
G1 X101.361 Y134.874 E11.57847
G1 X102.230 Y135.107 E11.60493
G1 X103.503 Y133.834 E11.65787
G1 X103.270 Y132.965 E11.68433
G1 X104.543 Y131.692 E11.73726
G1 X105.412 Y131.925 E11.76373
G1 X106.685 Y130.652 E11.81666
G1 X106.452 Y129.783 E11.84313
G1 X107.725 Y128.510 E11.89606
G1 X108.595 Y128.743 E11.92252
G1 X109.867 Y127.470 E11.97545
G1 X109.634 Y126.600 E12.00192
G1 X109.883 Y126.352 E12.01226
G1 X109.883 Y125.617 E12.03387
G1 X109.267 Y126.233 E12.05949
G1 X108.398 Y126.000 E12.08596
G1 X107.125 Y127.273 E12.13889
G1 X107.358 Y128.142 E12.16535
G1 X106.085 Y129.415 E12.21828
G1 X105.216 Y129.182 E12.24475
G1 X103.943 Y130.455 E12.29768
G1 X104.176 Y131.324 E12.32415
G1 X102.903 Y132.597 E12.37708
G1 X102.033 Y132.364 E12.40354
G1 X100.761 Y133.637 E12.45648
G1 X100.994 Y134.506 E12.48294
G1 X99.721 Y135.779 E12.53587
G1 X98.851 Y135.546 E12.56234
G1 X97.579 Y136.819 E12.61527
G1 X97.811 Y137.689 E12.64174
G1 X96.539 Y138.961 E12.69467
G1 X95.669 Y138.728 E12.72113
G1 X94.396 Y140.001 E12.77406
G1 X94.629 Y140.871 E12.80053
G1 X93.992 Y141.508 E12.82704
G1 X92.110 Y141.508 E12.88237
G1 X91.887 Y140.674 E12.90777
G1 X93.160 Y139.401 E12.96070
G1 X94.029 Y139.634 E12.98716
G1 X95.302 Y138.361 E13.04009
G1 X95.069 Y137.492 E13.06656
G1 X96.342 Y136.219 E13.11949
G1 X97.211 Y136.452 E13.14596
G1 X98.484 Y135.179 E13.19889
G1 X98.251 Y134.310 E13.22535
G1 X99.524 Y133.037 E13.27829
G1 X100.393 Y133.270 E13.30475
G1 X101.666 Y131.997 E13.35768
