;Generated from Ancestry3d_ColganteEquilibrium.stl 35decb35eddb611a72f8d4d0dba79bc34049fe7d;Generated with Cura_SteamEngine DEV
M109 T0 S220.0
T0
;Sliced at: Sun 12-04-2015 20:28:34
;Basic settings: Layer height: 0.2 Walls: 0.8 Fill: 20
;M190 S70 ;Uncomment to add your own bed temperature line
;M109 S220 ;Uncomment to add your own temperature line
G21        ;metric values
G90        ;absolute positioning
M82        ;set extruder to absolute mode
M107       ;start with the fan off

G28 X0 Y0  ;move X/Y to min endstops
G28 Z0     ;move Z to min endstops

G1 Z15.0 F9000 ;move the platform down 15mm

G92 E0                  ;zero the extruded length
G1 F200 E3              ;extrude 3mm of feed stock
G92 E0                  ;zero the extruded length again
G1 F9000
;Put printing message on LCD screen
M117 Printing...

;Layer count: 22
;LAYER:0
M107
G0 F9000 X78.753 Y79.916 Z0.300
;TYPE:SKIRT
G1 F1200 X79.038 Y79.645 E0.00740
G1 X79.769 Y79.106 E0.02448
G1 X81.231 Y78.042 E0.05850
G1 X83.201 Y78.818 E0.09832
G1 X84.343 Y79.562 E0.12396
G1 X85.881 Y81.048 E0.16419
G1 X84.901 Y79.183 E0.20382
G1 X84.686 Y78.488 E0.21750
G1 X83.959 Y76.033 E0.26567
G1 X86.151 Y74.315 E0.31805
G1 X86.407 Y74.089 E0.32448
G1 X87.568 Y73.507 E0.34891
G1 X88.062 Y73.280 E0.35913
G1 X89.035 Y72.864 E0.37904
G1 X89.367 Y72.729 E0.38578
G1 X90.432 Y72.341 E0.40710
G1 X90.432 Y72.342 E0.40712
G1 X90.784 Y72.213 E0.41417
G1 X91.098 Y72.117 E0.42035
G1 X91.559 Y71.975 E0.42942
G1 X92.104 Y71.808 E0.44015
G1 X92.373 Y71.531 E0.44741
G1 X92.779 Y71.112 E0.45838
G1 X94.083 Y69.769 E0.49360
G1 X95.493 Y69.456 E0.52076
G1 X95.856 Y69.480 E0.52761
G1 X96.616 Y69.478 E0.54190
G1 X104.414 Y69.477 E0.68859
G1 X105.785 Y69.632 E0.71454
G1 X107.561 Y71.461 E0.76250
G1 X107.789 Y71.699 E0.76870
G1 X107.813 Y71.712 E0.76921
G1 X107.903 Y71.807 E0.77167
G1 X108.786 Y72.081 E0.78906
G1 X109.513 Y72.320 E0.80346
G1 X110.637 Y72.731 E0.82597
G1 X110.962 Y72.865 E0.83258
G1 X111.940 Y73.279 E0.85256
G1 X112.443 Y73.512 E0.86299
G1 X113.498 Y74.040 E0.88518
G1 X114.580 Y74.886 E0.91102
G1 X115.908 Y76.502 E0.95036
G1 X115.322 Y78.461 E0.98882
G1 X115.113 Y79.156 E1.00248
G1 X114.121 Y81.044 E1.04259
G1 X115.645 Y79.571 E1.08246
G1 X116.529 Y78.993 E1.10233
G1 X117.124 Y78.614 E1.11560
G1 X119.141 Y78.304 E1.15399
G1 X120.873 Y79.579 E1.19444
G1 X121.178 Y79.840 E1.20199
G1 X122.075 Y80.818 E1.22696
G1 X123.022 Y81.963 E1.25491
G1 X123.249 Y82.261 E1.26195
G1 X123.940 Y83.187 E1.28369
G1 X124.156 Y83.506 E1.29093
G1 X124.791 Y84.458 E1.31246
G1 X124.973 Y84.754 E1.31900
G1 X125.521 Y85.678 E1.33920
G1 X125.892 Y86.338 E1.35345
G1 X126.209 Y87.557 E1.37714
G1 X126.368 Y89.566 E1.41505
G1 X124.563 Y91.010 E1.45853
G1 X124.236 Y91.275 E1.46644
G1 X123.130 Y91.860 E1.48998
G1 X124.409 Y91.609 E1.51450
G1 X124.898 Y91.612 E1.52370
G1 X125.558 Y91.609 E1.53611
G1 X127.765 Y91.827 E1.57783
G1 X128.682 Y94.239 E1.62637
G1 X128.852 Y94.699 E1.63559
G1 X129.103 Y96.151 E1.66331
G1 X129.279 Y97.633 E1.69138
G1 X129.384 Y99.129 E1.71959
G1 X129.394 Y99.500 E1.72658
G1 X129.414 Y100.648 E1.74817
G1 X129.406 Y101.020 E1.75517
G1 X129.366 Y102.155 E1.77654
G1 X129.345 Y102.499 E1.78302
G1 X129.257 Y103.538 E1.80263
G1 X129.103 Y104.070 E1.81305
G1 X129.047 Y104.265 E1.81687
G1 X129.046 Y104.265 E1.81689
G1 X128.807 Y105.110 E1.83340
G1 X127.563 Y106.699 E1.87136
G1 X125.890 Y106.871 E1.90300
G1 X126.193 Y107.063 E1.90975
G1 X127.673 Y108.161 E1.94441
G1 X127.595 Y110.172 E1.98227
G1 X127.405 Y111.073 E1.99959
G1 X127.330 Y111.439 E2.00662
G1 X126.747 Y112.817 E2.03476
G1 X126.103 Y114.146 E2.06254
G1 X125.924 Y114.482 E2.06970
G1 X125.378 Y115.473 E2.09099
G1 X125.185 Y115.797 E2.09808
G1 X124.561 Y116.801 E2.12032
G1 X123.707 Y118.040 E2.14862
G1 X123.474 Y118.352 E2.15595
G1 X122.785 Y119.237 E2.17705
G1 X122.268 Y119.694 E2.19003
G1 X121.770 Y120.132 E2.20250
G1 X120.018 Y121.184 E2.24094
G1 X118.329 Y120.373 E2.27619
G1 X118.297 Y120.356 E2.27687
G1 X118.343 Y120.457 E2.27895
G1 X119.083 Y122.558 E2.32086
G1 X116.896 Y124.745 E2.37903
G1 X115.697 Y125.547 E2.40617
G1 X115.213 Y125.841 E2.41682
G1 X114.420 Y126.317 E2.43422
G1 X114.091 Y126.498 E2.44128
G1 X113.107 Y127.022 E2.46225
G1 X112.760 Y127.192 E2.46952
G1 X111.767 Y127.661 E2.49018
G1 X111.440 Y127.803 E2.49688
G1 X110.401 Y128.233 E2.51804
G1 X110.065 Y128.359 E2.52479
G1 X109.039 Y128.724 E2.54527
G1 X108.047 Y128.882 E2.56417
G1 X107.510 Y128.962 E2.57438
G1 X107.390 Y128.944 E2.57666
G1 X106.113 Y129.072 E2.60080
G1 X106.105 Y129.894 E2.61627
G1 X103.296 Y130.473 E2.67022
G1 X102.841 Y130.494 E2.67878
G1 X102.044 Y130.493 E2.69378
G1 X99.331 Y130.487 E2.74481
G1 X97.753 Y130.493 E2.77449
G1 X96.661 Y130.490 E2.79503
G1 X93.891 Y129.698 E2.84923
G1 X93.884 Y128.801 E2.86610
G1 X92.419 Y128.951 E2.89380
G1 X91.586 Y128.825 E2.90965
G1 X91.003 Y128.737 E2.92074
G1 X89.940 Y128.361 E2.94195
G1 X89.599 Y128.232 E2.94881
G1 X88.565 Y127.804 E2.96986
G1 X88.239 Y127.664 E2.97653
G1 X87.218 Y127.183 E2.99776
G1 X86.888 Y127.021 E3.00468
G1 X85.910 Y126.496 E3.02556
G1 X85.581 Y126.317 E3.03260
G1 X84.334 Y125.567 E3.05997
G1 X83.110 Y124.748 E3.08768
G1 X82.437 Y124.076 E3.10557
G1 X81.242 Y122.848 E3.13780
G1 X81.497 Y120.807 E3.17649
G1 X81.702 Y120.356 E3.18581
G1 X80.272 Y121.116 E3.21627
G1 X78.373 Y120.258 E3.25547
G1 X77.232 Y119.254 E3.28406
G1 X76.521 Y118.345 E3.30577
G1 X76.277 Y118.013 E3.31352
G1 X75.635 Y117.090 E3.33467
G1 X75.429 Y116.783 E3.34162
G1 X74.820 Y115.803 E3.36332
G1 X74.629 Y115.485 E3.37030
G1 X74.053 Y114.439 E3.39276
G1 X73.258 Y112.828 E3.42656
G1 X72.672 Y111.440 E3.45490
G1 X72.481 Y110.523 E3.47252
G1 X72.383 Y110.134 E3.48006
G1 X72.428 Y107.942 E3.52130
G1 X74.115 Y106.870 E3.55890
G1 X73.855 Y106.845 E3.56382
G1 X72.440 Y106.748 E3.59049
G1 X71.186 Y105.076 E3.62981
G1 X70.745 Y103.535 E3.65996
G1 X70.658 Y102.512 E3.67927
G1 X70.635 Y102.166 E3.68579
G1 X70.594 Y101.007 E3.70761
G1 X70.589 Y100.637 E3.71457
G1 X70.608 Y99.500 E3.73596
G1 X70.618 Y99.136 E3.74281
G1 X70.693 Y98.017 E3.76391
G1 X70.724 Y97.620 E3.77140
G1 X70.899 Y96.152 E3.79921
G1 X71.149 Y94.693 E3.82705
G1 X71.486 Y93.801 E3.84499
G1 X72.260 Y91.644 E3.88810
G1 X75.581 Y91.605 E3.95057
G1 X76.865 Y91.860 E3.97519
G1 X75.788 Y91.292 E3.99810
G1 X73.597 Y89.536 E4.05092
G1 X73.804 Y87.503 E4.08935
G1 X74.114 Y86.333 E4.11212
G1 X74.475 Y85.689 E4.12601
G1 X75.030 Y84.748 E4.14656
G1 X75.219 Y84.447 E4.15325
G1 X75.844 Y83.508 E4.17446
G1 X76.056 Y83.196 E4.18156
G1 X76.747 Y82.265 E4.20337
G1 X76.980 Y81.961 E4.21057
G1 X77.919 Y80.826 E4.23828
G1 X78.753 Y79.916 E4.26150
G1 F2400 E-0.23850
G0 F9000 X105.206 Y106.925
;TYPE:FILL
G1 F2400 E4.26150
G1 F1200 X105.110 Y107.022 E4.26407
G0 F9000 X103.881 Y108.153
G0 X103.875 Y109.593
;TYPE:WALL-INNER
G1 F1200 X103.791 Y109.589 E4.26565
G1 X103.262 Y109.599 E4.27560
G1 X103.091 Y109.602 E4.27882
G1 X102.544 Y109.570 E4.28913
G1 X102.139 Y109.949 E4.29956
G1 X102.120 Y110.101 E4.30244
G1 X102.085 Y110.126 E4.30325
G1 X102.116 Y111.042 E4.32049
G1 X102.139 Y111.415 E4.32752
G1 X101.333 Y111.388 E4.34269
G1 X101.119 Y111.398 E4.34672
G1 X100.656 Y111.529 E4.35577
G1 X100.630 Y111.606 E4.35730
G1 X100.514 Y111.478 E4.36055
G1 X100.222 Y111.375 E4.36637
G1 X99.926 Y111.361 E4.37195
G1 X99.453 Y111.416 E4.38091
G1 X99.220 Y111.638 E4.38696
G1 X99.014 Y111.459 E4.39209
G1 X98.702 Y111.401 E4.39806
G1 X98.497 Y111.397 E4.40192
G1 X97.655 Y111.428 E4.41777
G1 X97.661 Y111.009 E4.42565
G1 X97.657 Y110.624 E4.43289
G1 X97.685 Y110.209 E4.44072
G1 X97.499 Y109.755 E4.44995
G1 X97.098 Y109.611 E4.45796
G1 X96.864 Y109.590 E4.46238
G1 X95.869 Y109.613 E4.48110
G1 X95.877 Y109.140 E4.49000
G1 X95.873 Y108.874 E4.49501
G1 X95.882 Y108.509 E4.50187
G1 X95.875 Y108.249 E4.50677
G1 X95.880 Y108.065 E4.51023
G1 X95.862 Y107.852 E4.51425
G1 X95.759 Y107.638 E4.51872
G1 X95.656 Y107.496 E4.52202
G1 X95.507 Y107.357 E4.52585
G1 X94.945 Y106.932 E4.53910
G1 X94.402 Y106.661 E4.55052
G1 X94.154 Y106.942 E4.55757
G1 X94.080 Y106.975 E4.55909
G1 X92.984 Y108.363 E4.59236
G1 X92.794 Y108.591 E4.59794
G1 X92.567 Y108.782 E4.60352
G1 X91.782 Y109.740 E4.62682
G1 X91.213 Y110.442 E4.64382
G1 X90.141 Y111.757 E4.67573
G1 X88.484 Y113.800 E4.72521
G1 X88.529 Y114.137 E4.73161
G1 X88.608 Y114.350 E4.73588
G1 X88.710 Y114.467 E4.73880
G1 X89.108 Y114.856 E4.74927
G1 X89.589 Y115.323 E4.76188
G1 X89.927 Y115.466 E4.76879
G1 X90.500 Y115.848 E4.78174
G1 X91.311 Y116.336 E4.79954
G1 X92.143 Y116.779 E4.81727
G1 X92.991 Y117.181 E4.83493
G1 X93.849 Y117.534 E4.85238
G1 X94.479 Y117.761 E4.86498
G1 X96.136 Y118.079 E4.89671
G1 X96.688 Y118.186 E4.90729
G1 X97.037 Y118.178 E4.91386
G1 X97.415 Y117.801 E4.92390
G1 X97.401 Y117.415 E4.93117
G1 X97.366 Y117.286 E4.93368
G1 X97.413 Y117.384 E4.93572
G1 X97.667 Y117.666 E4.94286
G1 X97.794 Y117.722 E4.94547
G1 X97.862 Y117.817 E4.94767
G1 X98.343 Y117.877 E4.95679
G1 X98.659 Y117.820 E4.96283
G1 X98.906 Y117.694 E4.96805
G1 X98.813 Y117.856 E4.97156
G1 X98.794 Y118.385 E4.98152
G1 X99.228 Y118.692 E4.99152
G1 X100.002 Y118.854 E5.00639
G1 X100.860 Y118.672 E5.02289
G1 X101.238 Y118.221 E5.03396
G1 X101.143 Y117.857 E5.04104
G1 X101.321 Y117.928 E5.04464
G1 X101.583 Y117.956 E5.04960
G1 X101.818 Y117.920 E5.05407
G1 X102.194 Y117.762 E5.06174
G1 X102.350 Y117.655 E5.06530
G1 X102.504 Y117.512 E5.06925
G1 X102.473 Y117.647 E5.07186
G1 X102.761 Y118.151 E5.08278
G1 X103.200 Y118.207 E5.09110
G1 X103.972 Y118.058 E5.10589
G1 X104.605 Y117.937 E5.11801
G1 X105.510 Y117.763 E5.13535
G1 X106.131 Y117.544 E5.14774
G1 X106.998 Y117.186 E5.16538
G1 X107.849 Y116.784 E5.18308
G1 X108.682 Y116.339 E5.20085
G1 X109.495 Y115.854 E5.21866
G1 X110.073 Y115.465 E5.23176
G1 X110.409 Y115.327 E5.23859
G1 X111.048 Y114.704 E5.25538
G1 X110.996 Y114.188 E5.26514
G1 X109.474 Y112.191 E5.31237
G1 X109.262 Y111.907 E5.31903
G1 X109.072 Y111.709 E5.32420
G1 X108.881 Y111.557 E5.32879
G1 X107.309 Y109.469 E5.37795
G1 X107.013 Y109.094 E5.38694
G1 X106.834 Y108.938 E5.39140
G1 X106.775 Y108.874 E5.39304
G1 X105.951 Y107.766 E5.41902
G1 X105.738 Y107.461 E5.42601
G1 X105.522 Y107.262 E5.43154
G1 X105.155 Y107.196 E5.43855
G1 X104.897 Y107.277 E5.44364
G1 X104.715 Y107.388 E5.44765
G1 X104.426 Y107.626 E5.45469
G1 X104.056 Y107.846 E5.46279
G1 X103.875 Y108.151 E5.46946
G1 X103.862 Y108.386 E5.47389
G1 X103.874 Y108.595 E5.47783
G1 X103.868 Y108.894 E5.48345
G1 X103.881 Y109.313 E5.49134
G1 X103.875 Y109.593 E5.49660
G0 F9000 X101.373 Y108.293
G1 F1200 X102.013 Y108.217 E5.50873
G1 X102.644 Y108.096 E5.52081
G1 X103.115 Y107.964 E5.53001
G1 X103.867 Y107.669 E5.54521
G1 X104.483 Y107.293 E5.55878
G1 X104.931 Y106.926 E5.56968
G1 X105.194 Y106.713 E5.57604
G1 X105.673 Y107.203 E5.58893
G1 X105.882 Y107.363 E5.59389
G1 X106.904 Y108.411 E5.62142
G1 X107.265 Y108.777 E5.63109
G1 X107.590 Y109.015 E5.63867
G1 X108.587 Y110.039 E5.66555
G1 X110.235 Y111.723 E5.70987
G1 X110.487 Y111.989 E5.71677
G1 X110.649 Y112.115 E5.72063
G1 X110.905 Y112.269 E5.72625
G1 X111.516 Y112.882 E5.74253
G1 X111.921 Y113.295 E5.75341
G1 X112.423 Y113.305 E5.76285
G1 X112.672 Y113.116 E5.76873
G1 X113.462 Y112.337 E5.78960
G1 X113.820 Y111.988 E5.79901
G1 X114.082 Y111.649 E5.80707
G1 X113.867 Y111.124 E5.81774
G1 X110.779 Y108.630 E5.89240
G1 X110.354 Y108.288 E5.90267
G1 X109.518 Y107.705 E5.92184
G1 X107.250 Y105.847 E5.97699
G1 X107.423 Y105.846 E5.98024
G1 X107.453 Y105.848 E5.98081
G1 X107.795 Y105.834 E5.98725
G1 X108.022 Y105.837 E5.99152
G1 X108.219 Y105.834 E5.99522
G1 X108.457 Y105.843 E5.99970
G1 X108.664 Y105.842 E6.00360
G1 X108.967 Y105.852 E6.00930
G1 X109.265 Y105.790 E6.01503
G1 X109.582 Y105.492 E6.02321
G1 X109.622 Y105.130 E6.03006
G1 X109.619 Y104.572 E6.04056
G1 X109.626 Y104.190 E6.04774
G1 X109.615 Y103.836 E6.05441
G1 X109.860 Y103.834 E6.05901
G1 X110.182 Y103.837 E6.06507
G1 X110.486 Y103.827 E6.07079
G1 X110.836 Y103.846 E6.07739
G1 X110.861 Y103.835 E6.07790
G1 X111.187 Y103.840 E6.08403
G1 X111.385 Y103.409 E6.09296
G1 X111.435 Y103.205 E6.09691
G1 X111.429 Y102.829 E6.10398
G1 X111.427 Y102.434 E6.11141
G1 X111.428 Y102.388 E6.11228
G1 X111.422 Y102.170 E6.11638
G1 X111.655 Y102.140 E6.12080
G1 X111.728 Y102.139 E6.12217
G1 X111.999 Y102.170 E6.12730
G1 X112.467 Y102.131 E6.13614
G1 X112.760 Y102.168 E6.14169
G1 X113.001 Y102.163 E6.14622
G1 X113.222 Y102.127 E6.15044
G1 X113.361 Y102.130 E6.15305
G1 X113.639 Y102.165 E6.15832
G1 X113.884 Y102.162 E6.16293
G1 X114.132 Y102.117 E6.16767
G1 X114.216 Y102.115 E6.16925
G1 X114.736 Y102.167 E6.17908
G1 X114.955 Y102.162 E6.18320
G1 X115.217 Y102.109 E6.18823
G1 X115.272 Y102.105 E6.18927
G1 X116.173 Y102.179 E6.20627
G1 X116.282 Y102.260 E6.20883
G1 X116.317 Y102.300 E6.20983
G1 X116.359 Y102.361 E6.21122
G1 X116.387 Y102.419 E6.21243
G1 X116.427 Y102.575 E6.21546
G1 X116.429 Y102.633 E6.21655
G1 X116.413 Y102.770 E6.21915
G1 X116.384 Y102.853 E6.22080
G1 X116.222 Y102.898 E6.22397
G1 X116.013 Y102.754 E6.22874
G1 X115.840 Y102.661 E6.23243
G1 X115.644 Y102.594 E6.23633
G1 X115.453 Y102.575 E6.23994
G1 X115.104 Y102.609 E6.24654
G1 X114.773 Y102.970 E6.25575
G1 X114.720 Y103.293 E6.26191
G1 X114.753 Y103.522 E6.26626
G1 X114.844 Y103.755 E6.27096
G1 X115.010 Y103.981 E6.27624
G1 X115.197 Y104.152 E6.28101
G1 X115.747 Y104.538 E6.29365
G1 X116.113 Y104.592 E6.30060
G1 X116.495 Y104.548 E6.30784
G1 X116.550 Y104.546 E6.30887
G1 X116.783 Y104.492 E6.31337
G1 X117.224 Y104.297 E6.32244
G1 X117.498 Y104.112 E6.32866
G1 X117.730 Y103.897 E6.33461
G1 X117.873 Y103.716 E6.33895
G1 X117.983 Y103.528 E6.34305
G1 X118.121 Y103.033 E6.35271
G1 X118.125 Y102.766 E6.35774
G1 X118.116 Y102.522 E6.36233
G1 X118.067 Y102.218 E6.36812
G1 X117.960 Y101.863 E6.37510
G1 X117.795 Y101.549 E6.38177
G1 X117.641 Y101.345 E6.38658
G1 X117.420 Y101.133 E6.39234
G1 X117.159 Y100.964 E6.39819
G1 X116.899 Y100.854 E6.40350
G1 X116.588 Y100.800 E6.40943
G1 X116.227 Y100.687 E6.41655
G1 X116.107 Y100.682 E6.41881
G1 X116.324 Y100.683 E6.42289
G1 X116.496 Y100.663 E6.42615
G1 X116.700 Y100.607 E6.43013
G1 X116.996 Y100.471 E6.43626
G1 X117.238 Y100.323 E6.44159
G1 X117.530 Y100.025 E6.44944
G1 X117.690 Y99.778 E6.45498
G1 X117.799 Y99.545 E6.45981
G1 X117.885 Y99.298 E6.46473
G1 X117.951 Y98.960 E6.47121
G1 X117.966 Y98.756 E6.47506
G1 X117.962 Y98.617 E6.47768
G1 X117.965 Y98.579 E6.47839
G1 X117.938 Y98.361 E6.48252
G1 X117.900 Y98.187 E6.48587
G1 X117.845 Y98.012 E6.48932
G1 X117.748 Y97.819 E6.49339
G1 X117.586 Y97.592 E6.49863
G1 X117.202 Y97.312 E6.50757
G1 X116.970 Y97.182 E6.51258
G1 X116.636 Y97.074 E6.51918
G1 X116.139 Y97.010 E6.52861
G1 X115.950 Y97.015 E6.53216
G1 X115.739 Y97.041 E6.53616
G1 X115.350 Y97.154 E6.54378
G1 X115.138 Y97.261 E6.54825
G1 X114.941 Y97.406 E6.55285
G1 X114.755 Y97.629 E6.55831
G1 X114.653 Y97.972 E6.56504
G1 X114.720 Y98.386 E6.57293
G1 X115.063 Y98.704 E6.58173
G1 X115.377 Y98.786 E6.58783
G1 X116.210 Y98.670 E6.60365
G1 X116.261 Y98.667 E6.60462
G1 X116.320 Y98.678 E6.60574
G1 X116.352 Y98.704 E6.60652
G1 X116.381 Y98.841 E6.60915
G1 X116.382 Y98.868 E6.60966
G1 X116.359 Y99.024 E6.61263
G1 X116.346 Y99.048 E6.61314
G1 X116.213 Y99.169 E6.61652
G1 X116.138 Y99.207 E6.61811
G1 X115.740 Y99.325 E6.62591
G1 X115.721 Y99.326 E6.62627
G1 X115.423 Y99.256 E6.63203
G1 X115.198 Y99.243 E6.63627
G1 X114.164 Y99.298 E6.65575
G1 X113.806 Y99.320 E6.66249
G1 X113.327 Y99.254 E6.67159
G1 X112.663 Y99.293 E6.68410
G1 X112.356 Y99.316 E6.68989
G1 X112.261 Y99.309 E6.69168
G1 X112.003 Y99.263 E6.69661
G1 X111.754 Y99.267 E6.70130
G1 X111.416 Y99.295 E6.70768
G1 X111.424 Y99.019 E6.71287
G1 X111.421 Y98.680 E6.71925
G1 X111.426 Y98.265 E6.72706
G1 X111.324 Y97.829 E6.73548
G1 X110.888 Y97.580 E6.74492
G1 X110.227 Y97.597 E6.75736
G1 X109.890 Y97.602 E6.76370
G1 X109.610 Y97.599 E6.76897
G1 X109.621 Y97.258 E6.77539
G1 X109.607 Y96.809 E6.78384
G1 X109.621 Y96.159 E6.79607
G1 X109.334 Y95.971 E6.80252
G1 X109.168 Y95.805 E6.80694
G1 X108.340 Y95.843 E6.82253
G1 X108.187 Y95.848 E6.82541
G1 X107.970 Y95.502 E6.83309
